X:1
T: Mrs. Colonel Sinclair of Forres
C:
R:Strathspey
Q: 128
K:D
M:4/4
L:1/16
|:A,3D F3A dcBA F4|Ad3 d3f gfed B2d2|Ad3 F3A BABc d3B|AF3 D3F GFED B,4|
A,3D F3A dcBA F4|A3d d3f gfed B3d|A3d F3A BABc d3B|AF3 F3D E4 D2A2|
defg a3f b3f a3f|g3e f3d gfed B4|defg a3f b3f a3f|g3e f3d e4 d4|
defg a3f b3f a3f|g3e f3d gfed Bd3|Ad3 F3A BABc d3B|AF3 F3D E4 D4:|
